X: 783
T: Airy
R: jig
M: 6/8
K: Dmajor
|:Ade ~f3|afe ~f3|afe def|edB dBA|
AFA def|afe ~f3|afe def|1 edc d2 B:|2 edc d2 c||
BFB dfe|dBG Bde|~f3 afe|dfe dBA|
BFB dgf|edB GBd|~f3 afe|dBA Bdc|
BFB dgf|edB GBd|~f3 afe|dfe dBA|
BAF BAF|A/B/de ~f3|afe def|edc d2 B||

